mobile/24/svg/critical-fill-24.svg

<svg width="24" height="24" fill="none" xmlns="http://www.w3.org/2000/svg"><path fill-rule="evenodd" clip-rule="evenodd" d="M12 22C6.486 22 2 17.514 2 12S6.486 2 12 2s10 4.486 10 10-4.486 10-10 10zm-.875-5v-1.75h1.75V17h-1.75zm0-10v6.25h1.75V7h-1.75z" fill="#000"/></svg>

<svg width="24" height="24" viewBox="0 0 24 24" fill="none" xmlns="http://www.w3.org/2000/svg">
<path fill-rule="evenodd" clip-rule="evenodd" d="M12 22C6.486 22 2 17.514 2 12C2 6.486 6.486 2 12 2C17.514 2 22 6.486 22 12C22 17.514 17.514 22 12 22ZM11.125 17V15.25H12.875V17H11.125ZM11.125 7V13.25H12.875V7H11.125Z" fill="black"/>
</svg>
